X:5
T:New Slow Air
T:Harmony 3
C:Lyric Todkill
L:1/8
R:Slow Air
M:3/4
K:D
[| {g}Bd {ag}a3g | {a}fa {c}d3c | {g}Bd {gf}g3B | {d}c4 {G}A2 | 
{g}Bd {ag}a3g | {a}fa {c}d3c | {g}Bd {gf}g2{ag}a2 | {c}d3e {g}fg ||
{ag}a3g {a}fd | {g}A/B/d {gf}g3a | {e}f3a {fg}fd | {ag}(a4 a3)d |
{ag}a3g {a}fd | {g}A/B/d {gf}g3d | {g}c2 {ag}a2 g2 | {a}e2 d2 {G}A2 |
"Watch foot"{g}!tenuto!B!tenuto!d [M:5/4]| {a}fd {g}A/B/d G3A {g}A/B/c "Spey Time"[M:C]|{g}A4 e4 |]

